!!!COM: Charles Gounod
!!!CNT: Francais
!!!TXO: Francais
!!!OTL: "A toi mon coeur"
!!!LYR: Barbier
!!!OPR: 
!!!OPS: Op. 
!!!ONM: No.
!!!ENC: Emily Thomas
!!!YOR: CD Sheet Music French Art Songs, The Ultimate Collection
!!!YOR: CD Sheet Music, LLC 2003
!!!ODT: 1872/
!!NB: Vocal melody and text encoded.
**kern	**silbe
=0	=0
*clefG2	*
*k[b-e-a-d-g-]	*
*M3/4	*
*MM[Allegro appassionato]	*
2.r	.
=2	=2
2.r	.
=3	=3
2.r	.
=4	=4
2.r	.
=5	=5
4r	.
4r	.
8r	.
{8a-	{La
=6	=6
2b-	perle
8b-	est
8b-	aux
=7	=7
4b-	on-
8b-}	-des,}
8r	.
8r	.
{8b-	{Les
=8	=8
2cc	cieux
8cc	ont
8cc	le
=9	=9
[4cc	jour!
8cc]}	|}
8r	.
{8.cc	{Mais
16cc	mon
=10	=10
2ff	Coeur,
4ff	mon
=11	=11
[4ee-	Coeur,
8ee-]}	|}
8r	.
{4a-	{mon
=12	=12
4dd-	Coeur
[4dd-	a
8dd-]	|
8gn	l'a-
=13	=13
[4a-	-mour!
8a-]}	|}
8r	.
{[4ee-	{Cieux
=14	=14
8ee-]	|
16f	in-
16f	-fi-
4f	-nis,
8.f	mers
16f	pro-
=15	=15
8gn	-fon-
8f}	-des,}
4r	.
{4ff	{Ce
=16	=16
4.ff	Coeur
8g-	de/-
8g-	-robe
8g-	aux
=17	=17
[4gn	yeux
8gn]}	|}
8r	.
{8een	{Plus
8een	de
=18	=18
4ddn	per-
4cc	-les
8cc	que
8bn	les
=19	=19
4bn	on-
8an}	-des}
8r	.
{4ff	{Plus
=20	=20
4.ff	d'as-
8bn	-tres
8cc	que
8ddn	les
=21	=21
[4cc	cieux!
8cc]}	|}
8r	.
{8cc	{Plus
8cc	de
=22	=22
4cc	per-
4cc	-les
8cc	que
8cc	les
=23	=23
2ff	on-
8ff}	-des,}
8r	.
=24	=24
{8ff	{Plus
4gn	d'as-
8gn	-tres
8a-	que
8b-	les
=25	=25
[2.a-	cieux!
=26	=26
4a-]}	|}
4r	.
4r	.
=27	=27
{4a-	{Toi,
8a-	fil-
8a-	-le
8a-	jerne
8a-	et
=28	=28
4a-	bel-
8dn}	-le,}
8r	.
{[4b-	{Viens
=29	=29
4b-]	|
8b-	au
8b-	Coeur
8b-	qui
8b-	t'ap-
=30	=30
4b-	-pel-
8en}	-le}
8r	.
{4cc	{Mon
=31	=31
4cc	Coeur,
8.cc	et
16cc	les
4cc	flots,
=32	=32
8.cc	et
16dd-	le
4dd-	jour
4dd-	Pal-
=33	=33
12dd-	pi-
12cc	-tent
12dd-	du
[4ff	me^me
8ff]	|
8ee-	a-
=34	=34
[2ee-	-mour!
8ee-]}	|}
8r	.
=35	=35
{4een	{Toi,
8een	fil-
8een	-le
8een	jeune
8een	et
=36	=36
4en	bel-
8an}	-le,}
8r	.
{[4ff#	{Viens
=37	=37
4ff#]	|
8ff#	au
8ff#	Coeur
8ff#	qui
8ff#	t'ap-
=38	=38
4ff#	-pel-
8bn}	-le}
8r	.
{4bn	{Mon
=39	=39
2gg#	Coeur,
8.een	et
16dd#	les
=40	=40
2cc#	flots,
8.cc#	et
16cc#	le
=41	=41
8dd-	jour
8a-}	|}
4r	.
{4dd-	{Pal-
=42	=42
12dd-	-pi-
12cc	-tent
12dd-	du
[4ff	me\me
8ff]	|
8b-	a-
=43	=43
[4ee-	-mour!
8ee]}	|}
8r	.
{4ee-	{Pal-
=44	=44
12ee-	-pi-
12ddn	-tent
12ee-	du
[4gg-	me^me
8gg-]	|
8cc	a-
=45	=45
[2dd-	-mour!
8dd-]}	|}
8r	.
==	==
*-	*-
